X:1
T:Moseley, 66.66
T:Moseley, 66.66
T:Henry Smart, 1881
T:Public Domain Courtesy of the Cyber Hymnal™
C:Henry Smart, 1881
Z:Public Domain
Z:Courtesy of the Cyber Hymnal™
%%score ( 1 2 ) ( 3 4 )
L:1/8
Q:1/4=110
M:4/4
K:Eb
V:1 treble 
V:2 treble 
V:3 bass 
V:4 bass 
V:1
 E2 | [EF]2 [EG]2 [EA]2 [Ec]2 | [EB]6 [Ec]2 | [CA]2 [FB]2 [B,G]2 E2 | [DF]6 [FB]2 | %5
 [EG]2 [Ee]2 [Fd]2 [Fc]2 | [FB]2 [CG]2 [CA]2 [CF]2 | [B,E]4 [B,D]4 | [B,E]6 |] %9
V:2
 E2 | x8 | x8 | x6 E2 | x8 | x8 | x8 | x8 | x6 |] %9
V:3
 [E,G,]2 | A,2 z [C,A,]2 [A,,A,]2 x | [E,G,]6 [C,G,]2 | [F,A,]2 [D,F,]2 [E,G,]2 [C,=A,]2 | %4
 [B,,B,]6 [D,B,]2 | [E,B,]2 [G,B,]2 [F,B,]2 [E,=A,]2 | [D,B,]2 [=E,B,]2 [F,A,]2 [A,,A,]2 | %7
 [B,,G,]4 (F,2 A,2) | [E,G,]6 |] %9
V:4
 x2 | E,3 (B,2 D,) x2 | x8 | x8 | x8 | x8 | x8 | x4 B,,4 | x6 |] %9

